{
  "type": "map",
  "version": "1.10",
  "tiledversion": "1.11.2",
  "orientation": "orthogonal",
  "renderorder": "right-down",
  "width": 24,
  "height": 18,
  "tilewidth": 32,
  "tileheight": 32,
  "infinite": false,
  "tilesets": [
    {
      "firstgid": 1,
      "source": "semantic.tsj"
    }
  ],
  "layers": [
    {
      "id": 1,
      "type": "tilelayer",
      "name": "terrain",
      "width": 24,
      "height": 18,
      "data": [
        2,
        2,
        2,
        2,
        2,
        2,
        2,
        2,
        2,
        2,
        2,
        2,
        2,
        2,
        2,
        2,
        2,
        2,
        2,
        2,
        2,
        2,
        2,
        2,
        2,
        1,
        1,
        1,
        1,
        1,
        1,
        1,
        1,
        1,
        1,
        1,
        1,
        1,
        1,
        1,
        1,
        1,
        1,
        1,
        1,
        1,
        1,
        2,
        2,
        1,
        4,
        4,
        4,
        4,
        4,
        1,
        1,
        1,
        1,
        1,
        1,
        1,
        1,
        1,
        1,
        1,
        6,
        6,
        6,
        6,
        1,
        2,
        2,
        1,
        4,
        5,
        4,
        4,
        4,
        1,
        1,
        1,
        1,
        1,
        1,
        1,
        1,
        1,
        1,
        1,
        6,
        6,
        7,
        6,
        1,
        2,
        2,
        1,
        4,
        4,
        4,
        4,
        4,
        1,
        3,
        3,
        3,
        3,
        3,
        3,
        3,
        3,
        3,
        1,
        6,
        6,
        6,
        6,
        1,
        2,
        2,
        1,
        4,
        4,
        4,
        5,
        4,
        1,
        3,
        3,
        3,
        3,
        3,
        3,
        3,
        3,
        3,
        1,
        6,
        6,
        6,
        6,
        1,
        2,
        2,
        1,
        4,
        4,
        4,
        4,
        4,
        1,
        3,
        3,
        3,
        3,
        3,
        3,
        3,
        3,
        3,
        1,
        6,
        6,
        6,
        6,
        1,
        2,
        2,
        1,
        1,
        1,
        1,
        1,
        1,
        1,
        3,
        3,
        3,
        3,
        3,
        3,
        3,
        3,
        3,
        1,
        1,
        1,
        1,
        1,
        1,
        2,
        2,
        1,
        1,
        1,
        1,
        1,
        1,
        1,
        3,
        3,
        3,
        3,
        3,
        3,
        3,
        3,
        3,
        1,
        1,
        1,
        1,
        1,
        1,
        2,
        2,
        1,
        1,
        1,
        1,
        1,
        1,
        1,
        3,
        3,
        3,
        3,
        3,
        3,
        3,
        3,
        3,
        1,
        1,
        1,
        1,
        1,
        1,
        2,
        2,
        1,
        1,
        1,
        1,
        1,
        1,
        1,
        3,
        3,
        3,
        3,
        3,
        3,
        3,
        3,
        3,
        1,
        1,
        1,
        1,
        1,
        1,
        2,
        2,
        1,
        1,
        1,
        1,
        1,
        1,
        1,
        3,
        3,
        3,
        3,
        3,
        3,
        3,
        3,
        3,
        1,
        1,
        1,
        1,
        1,
        1,
        2,
        2,
        1,
        1,
        1,
        1,
        1,
        1,
        1,
        1,
        1,
        1,
        1,
        1,
        1,
        1,
        1,
        1,
        1,
        8,
        8,
        8,
        8,
        1,
        2,
        2,
        1,
        1,
        1,
        1,
        1,
        1,
        1,
        1,
        1,
        1,
        1,
        1,
        1,
        1,
        1,
        1,
        1,
        8,
        8,
        8,
        8,
        1,
        2,
        2,
        1,
        1,
        1,
        1,
        1,
        1,
        1,
        1,
        1,
        1,
        1,
        1,
        1,
        1,
        1,
        1,
        1,
        8,
        8,
        9,
        8,
        1,
        2,
        2,
        1,
        1,
        1,
        1,
        1,
        1,
        1,
        1,
        1,
        1,
        1,
        1,
        1,
        1,
        1,
        1,
        1,
        8,
        8,
        8,
        8,
        1,
        2,
        2,
        1,
        1,
        1,
        1,
        1,
        1,
        1,
        1,
        1,
        1,
        1,
        1,
        1,
        1,
        1,
        1,
        1,
        1,
        1,
        1,
        1,
        1,
        2,
        2,
        2,
        2,
        2,
        2,
        2,
        2,
        2,
        2,
        2,
        2,
        2,
        2,
        2,
        2,
        2,
        2,
        2,
        2,
        2,
        2,
        2,
        2,
        2
      ],
      "visible": true,
      "opacity": 1,
      "x": 0,
      "y": 0
    },
    {
      "id": 2,
      "type": "objectgroup",
      "name": "entities",
      "objects": [
        {
          "id": 1,
          "name": "PLAYER",
          "type": "PLAYER",
          "x": 384,
          "y": 320,
          "point": true
        },
        {
          "id": 2,
          "name": "PROFESSOR",
          "type": "PROFESSOR",
          "x": 384,
          "y": 224,
          "point": true
        },
        {
          "id": 3,
          "name": "MERCHANT",
          "type": "MERCHANT",
          "x": 448,
          "y": 224,
          "point": true
        },
        {
          "id": 4,
          "name": "TREECKO",
          "type": "TREECKO",
          "x": 352,
          "y": 320,
          "point": true
        },
        {
          "id": 5,
          "name": "MUDKIP",
          "type": "MUDKIP",
          "x": 416,
          "y": 320,
          "point": true
        },
        {
          "id": 6,
          "name": "TORCHIC",
          "type": "TORCHIC",
          "x": 640,
          "y": 384,
          "point": true
        },
        {
          "id": 7,
          "name": "CANDY",
          "type": "CANDY",
          "x": 384,
          "y": 320,
          "point": true
        },
        {
          "id": 8,
          "name": "CANDY",
          "type": "CANDY",
          "x": 384,
          "y": 320,
          "point": true
        },
        {
          "id": 9,
          "name": "CANDY",
          "type": "CANDY",
          "x": 384,
          "y": 320,
          "point": true
        },
        {
          "id": 10,
          "name": "CANDY",
          "type": "CANDY",
          "x": 384,
          "y": 320,
          "point": true
        },
        {
          "id": 11,
          "name": "CANDY",
          "type": "CANDY",
          "x": 384,
          "y": 320,
          "point": true
        },
        {
          "id": 12,
          "name": "CANDY",
          "type": "CANDY",
          "x": 384,
          "y": 320,
          "point": true
        },
        {
          "id": 13,
          "name": "CANDY",
          "type": "CANDY",
          "x": 384,
          "y": 320,
          "point": true
        },
        {
          "id": 14,
          "name": "CANDY",
          "type": "CANDY",
          "x": 384,
          "y": 320,
          "point": true
        },
        {
          "id": 15,
          "name": "CANDY",
          "type": "CANDY",
          "x": 384,
          "y": 320,
          "point": true
        },
        {
          "id": 16,
          "name": "CANDY",
          "type": "CANDY",
          "x": 384,
          "y": 320,
          "point": true
        },
        {
          "id": 17,
          "name": "CANDY",
          "type": "CANDY",
          "x": 384,
          "y": 320,
          "point": true
        },
        {
          "id": 18,
          "name": "CANDY",
          "type": "CANDY",
          "x": 384,
          "y": 320,
          "point": true
        },
        {
          "id": 19,
          "name": "CANDY",
          "type": "CANDY",
          "x": 384,
          "y": 320,
          "point": true
        },
        {
          "id": 20,
          "name": "CANDY",
          "type": "CANDY",
          "x": 384,
          "y": 320,
          "point": true
        },
        {
          "id": 21,
          "name": "CANDY",
          "type": "CANDY",
          "x": 384,
          "y": 320,
          "point": true
        },
        {
          "id": 22,
          "name": "CANDY",
          "type": "CANDY",
          "x": 384,
          "y": 320,
          "point": true
        },
        {
          "id": 23,
          "name": "CANDY",
          "type": "CANDY",
          "x": 384,
          "y": 320,
          "point": true
        },
        {
          "id": 24,
          "name": "CANDY",
          "type": "CANDY",
          "x": 384,
          "y": 320,
          "point": true
        },
        {
          "id": 25,
          "name": "CANDY",
          "type": "CANDY",
          "x": 384,
          "y": 320,
          "point": true
        },
        {
          "id": 26,
          "name": "CANDY",
          "type": "CANDY",
          "x": 384,
          "y": 320,
          "point": true
        }
      ]
    }
  ]
}